assets/symbols/mulberry/wall.svg

<svg height="850.394" viewBox="0 0 850.394 850.394" width="850.394" xmlns="http://www.w3.org/2000/svg"><path d="m624.03 325.44v-84.06h.85l123.2-142.79 12 4.66v637.3l-16.22 4.63-119.68-138.73h-.15z" fill="#fff5b4"/><path d="m742.61 96.46 5.47 2.13-123.2 142.79h-.85v-1.42h-400.68v.7l-122.62-142.13 8.49-1.99 315.32-.08z" fill="#fff"/><path d="m624.18 606.45 119.68 138.73-21.72 6.21-298.45.08h-315.15l-4.11-7.09 118.92-137.84h400.68v-.09z" fill="#f6cc4b"/><path d="m624.03 325.44v281.1h-44.33v-228.81h-118.34v228.81h-238.01v-366.58h400.68zm-246.05 156.2v-105.52h-118.33v105.52z" fill="#fff5b4"/><path d="m579.7 601.67v4.87h-118.34v-228.81h118.34z" fill="#9c5c25"/><path d="m223.35 240.66v365.88l-118.92 137.84-15.26-26.36v-616.77l11.56-2.72z" fill="#fff5b4"/><g fill="none"><g><g stroke="#231f20"><path d="m624.03 606.45v.09h-400.68v-366.58h400.68v85.48z" stroke-width="19.333"/><path d="m624.18 606.45 119.68 138.73 5.35 6.2-27.07.01-298.45.08h-325.38l6.12-7.09 118.92-137.84m.7-365.07-.7-.81-122.62-142.13-1.72-1.99h10.21l315.32-.08h325.37l-1.83 2.13-123.2 142.79m-535.71-153.27v671.8m670.91-671.98v671.8m-382.1-338.5v60.41h-118.33v-105.52h118.33zm83.38 180.44v-223.94h118.34v223.94" stroke-width="19.333"/><path d="m318.77 377.73v98.28m0-54.78h59.21" stroke-width="12.889"/><path d="m519.4 325.44h197.67m-64.62-57.81 65.88 58.03-65.99 58.01" stroke-width="25.777"/></g><path d="m720 752 2.14-.61 21.72-6.21 16.22-4.63 1.92-.55" stroke="#cb82b7"/></g><path d="m0 0h850.394v850.394h-850.394z"/></g></svg>

<svg xmlns="http://www.w3.org/2000/svg" width="850.394" height="850.394" viewBox="0 0 850.394 850.394" overflow="visible"><path fill="#fff5b4" d="M624.03 325.44v-84.06h.85l123.2-142.79 12 4.66v637.3l-16.22 4.63-119.68-138.73h-.15z"/><path fill="#fff" d="M742.61 96.46l5.47 2.13-123.2 142.79h-.85v-1.42H223.35v.7L100.73 98.53l8.49-1.99 315.32-.08z"/><path fill="#f6cc4b" d="M624.18 606.45l119.68 138.73-21.72 6.21-298.45.08H108.54l-4.11-7.09 118.92-137.84h400.68v-.09z"/><path d="M624.03 325.44V606.54H579.7V377.73H461.36v228.81H223.35V239.96h400.68v85.48zm-246.05 156.2V376.12H259.65v105.52h118.33z" fill="#fff5b4"/><path fill="#9c5c25" d="M579.7 601.67v4.87H461.36V377.73H579.7z"/><path fill="#fff5b4" d="M223.35 240.66v365.88L104.43 744.38l-15.26-26.36V101.25l11.56-2.72z"/><g fill="none"><path stroke="#231f20" stroke-width="19.333" d="M624.03 606.45v.09H223.35V239.96h400.68v85.48z"/><path stroke="#231f20" stroke-width="19.333" d="M624.18 606.45l119.68 138.73 5.35 6.2-27.07.01-298.45.08H98.31l6.12-7.09 118.92-137.84M224.05 241.47l-.7-.81L100.73 98.53l-1.72-1.99h10.21l315.32-.08h325.37l-1.83 2.13-123.2 142.79M89.17 88.11v671.8M760.08 87.93v671.8M377.98 421.23v60.41H259.65V376.12h118.33zM461.36 601.67V377.73H579.7v223.94"/><path stroke="#231f20" stroke-width="12.889" d="M318.77 377.73v98.28M318.77 421.23h59.21"/><path stroke="#231f20" stroke-width="25.777" d="M519.4 325.44H717.07M652.45 267.63l65.88 58.03-65.99 58.01"/><path stroke="#cb82b7" d="M720 752l2.14-.61 21.72-6.21 16.22-4.63L762 740"/></g><path fill="none" d="M0 0h850.394v850.394H0z"/></svg>
